X: 1
T: Paddy Fahy's
M: 6/8
L: 1/8
R: jig
K: Ador
cBA EAB|cBA aed|c{d}cA g2e|dBG Bcd|
cBA EAB|cBA a2g |.f/.g/af gfe|dBG Bcd:|
cBA a^ga|Ace aed|c{d}cA g2e|dBG Bcd|
cBA a^ga|Ace a{b}ag|.f/.g/af gfe|dBG Bcd:|]
